modules/map-icons/icons/post-office.svg

<svg version="1.2" baseProfile="tiny" xmlns="http://www.w3.org/2000/svg" width="50" height="50" viewBox="0 0 50 50" overflow="inherit"><path d="M2.941 8c-2.941 0-1.47.779 0 1.974l22.059 16.789 22.059-16.737c1.472-1.195 2.941-2.026 0-2.026h-44.118zm-2.941 3.946v24.728c0 1.455 1.488 3.326 2.665 3.326h44.67c1.178 0 2.665-1.871 2.665-3.326v-24.728l-25 19.075-25-19.075z"/></svg>

<svg version="1.2" baseProfile="tiny" xmlns="http://www.w3.org/2000/svg" width="50" height="50" viewBox="0 0 50 50" overflow="inherit"><path d="M2.941 8c-2.941 0-1.47.779 0 1.974L25 26.763l22.059-16.737C48.531 8.831 50 8 47.059 8H2.941zM0 11.946v24.728C0 38.129 1.488 40 2.665 40h44.67C48.513 40 50 38.129 50 36.674V11.946L25 31.021 0 11.946z"/></svg>
